X:144
T:4 Steirer (1.)
C:traditionell
R:Steirer
A:Bad Ischl, Salzkammergut
B:"Pfeifermusik aus Bad Ischl", Lois Blamberger, 3 .Auflage, Bad Ischl 1990
S:im buch mit der Angabe: aus der Sammlung vom Blamberger Lois
N:im buch in D, nr. 2/1
Z:abc transcription Simon Wascher
M:3/4
L:1/8
K:D
V:1
(ABc) |\
(dA FA dA) | (cA GA cB) | (Aa gA cB) | (Aa fA Bc) |\
(dA FA dA) | (cA GA cB) | (Aa gA ce) | d2 z :|
V:2
(FGA) |\
(AF DF AF) | (AG EG AG) | (Ee cG AG) | (Ff dF GA) |\
(AF DF AF) | (AG EG AG) | (Ee cG AG) | F2 z :|
